azure-patterns/svg-question-mark-grey.svg

<svg xmlns="http://www.w3.org/2000/svg" viewBox="0 0 31 31">
                                
                            
    <rect width="30.3036" height="30.229" fill="black" fill-opacity="0"></rect>
    <path d="M15.1518 5.52146e-05C16.5465 5.52146e-05 17.8884 0.179237 19.1775 0.537598C20.4666 0.895962 21.6737 1.40452 22.799 2.06328C23.9243 2.72203 24.9466 3.5099 25.8658 4.42689C26.7851 5.34388 27.5749 6.36363 28.2353 7.48615C28.8957 8.60867 29.4055 9.81287 29.7647 11.0988C30.124 12.3846 30.3036 13.7232 30.3036 15.1145C30.3036 16.5058 30.124 17.8444 29.7647 19.1303C29.4055 20.4162 28.8957 21.6204 28.2353 22.7429C27.5749 23.8654 26.7851 24.8852 25.8658 25.8022C24.9466 26.7192 23.9243 27.507 22.799 28.1658C21.6737 28.8245 20.4666 29.3331 19.1775 29.6915C17.8884 30.0498 16.5465 30.229 15.1518 30.229C13.7571 30.229 12.4152 30.0498 11.1261 29.6915C9.83705 29.3331 8.62987 28.8245 7.50458 28.1658C6.37929 27.507 5.35702 26.7192 4.43777 25.8022C3.51851 24.8852 2.7287 23.8654 2.06832 22.7429C1.40793 21.6204 0.898119 20.4162 0.538872 19.1303C0.179624 17.8444 0 16.5058 0 15.1145C0 13.7232 0.179624 12.3846 0.538872 11.0988C0.898119 9.81287 1.40793 8.60867 2.06832 7.48615C2.7287 6.36363 3.51851 5.34388 4.43777 4.42689C5.35702 3.5099 6.37929 2.72203 7.50458 2.06328C8.62987 1.40452 9.83705 0.895962 11.1261 0.537598C12.4152 0.179237 13.7571 5.52146e-05 15.1518 5.52146e-05ZM15.1518 28.3318C16.3669 28.3318 17.5397 28.1737 18.6703 27.8575C19.8009 27.5413 20.8575 27.096 21.8402 26.5215C22.8228 25.9471 23.7156 25.2594 24.5187 24.4583C25.3217 23.6573 26.0111 22.7666 26.587 21.7864C27.1628 20.8062 27.6092 19.7522 27.9262 18.6244C28.2432 17.4966 28.4017 16.3266 28.4017 15.1145C28.4017 13.9024 28.2432 12.7325 27.9262 11.6047C27.6092 10.4769 27.1628 9.42289 26.587 8.44266C26.0111 7.46243 25.3217 6.57179 24.5187 5.77075C23.7156 4.9697 22.8228 4.28196 21.8402 3.70753C20.8575 3.13309 19.8009 2.68778 18.6703 2.37157C17.5397 2.05537 16.3669 1.89727 15.1518 1.89727C13.9367 1.89727 12.7639 2.05537 11.6333 2.37157C10.5027 2.68778 9.4461 3.13309 8.46345 3.70753C7.48081 4.28196 6.58797 4.9697 5.78495 5.77075C4.98192 6.57179 4.29248 7.46243 3.71663 8.44266C3.14078 9.42289 2.69436 10.4769 2.37737 11.6047C2.06039 12.7325 1.9019 13.9024 1.9019 15.1145C1.9019 16.3266 2.06039 17.4966 2.37737 18.6244C2.69436 19.7522 3.14078 20.8062 3.71663 21.7864C4.29248 22.7666 4.98192 23.6573 5.78495 24.4583C6.58797 25.2594 7.48081 25.9471 8.46345 26.5215C9.4461 27.096 10.5027 27.5413 11.6333 27.8575C12.7639 28.1737 13.9367 28.3318 15.1518 28.3318ZM14.1375 22.1975H16.1661V24.2212H14.1375V22.1975ZM15.1518 7.01975C15.8492 7.01975 16.5043 7.15413 17.1171 7.42291C17.7299 7.69168 18.2662 8.05531 18.7258 8.5138C19.1854 8.9723 19.5499 9.50721 19.8194 10.1185C20.0888 10.7299 20.2235 11.3833 20.2235 12.079C20.2235 12.7114 20.1232 13.2621 19.9224 13.7311C19.7216 14.2002 19.4707 14.6244 19.1696 15.0039C18.8684 15.3833 18.5435 15.7285 18.1948 16.0394C17.8462 16.3504 17.5213 16.6613 17.2201 16.9722C16.919 17.2832 16.668 17.6152 16.4673 17.9683C16.2665 18.3213 16.1661 18.7192 16.1661 19.1619V20.1738H14.1375V19.1619C14.1375 18.5295 14.2378 17.9788 14.4386 17.5098C14.6393 17.0407 14.8903 16.6165 15.1914 16.237C15.4926 15.8576 15.8175 15.5124 16.1661 15.2015C16.5148 14.8906 16.8397 14.5796 17.1409 14.2687C17.442 13.9578 17.693 13.6284 17.8937 13.2806C18.0945 12.9327 18.1948 12.5322 18.1948 12.079C18.1948 11.6574 18.1156 11.2621 17.9571 10.8932C17.7986 10.5243 17.582 10.2029 17.3073 9.92881C17.0326 9.65477 16.7103 9.4387 16.3405 9.2806C15.9707 9.12249 15.5744 9.04344 15.1518 9.04344C14.7292 9.04344 14.3329 9.12249 13.9631 9.2806C13.5933 9.4387 13.271 9.65477 12.9963 9.92881C12.7216 10.2029 12.505 10.5243 12.3465 10.8932C12.188 11.2621 12.1088 11.6574 12.1088 12.079H10.0801C10.0801 11.3833 10.2121 10.7299 10.4763 10.1185C10.7405 9.50721 11.1023 8.9723 11.562 8.5138C12.0216 8.05531 12.5605 7.69168 13.1786 7.42291C13.7967 7.15413 14.4544 7.01975 15.1518 7.01975Z" fill="#505055"></path>
</svg>

<svg xmlns="http://www.w3.org/2000/svg" viewBox="0 0 31 31"><path fill="none" d="M0 0h30.304v30.229H0z"/><path d="M15.152 0c1.395 0 2.736.18 4.025.538a15.184 15.184 0 0 1 9.058 6.948 15.104 15.104 0 0 1 1.53 3.613c.359 1.286.539 2.624.539 4.015 0 1.392-.18 2.73-.54 4.016a15.104 15.104 0 0 1-3.898 6.672 15.19 15.19 0 0 1-6.689 3.89c-1.289.358-2.63.537-4.025.537-1.395 0-2.737-.18-4.026-.537a15.19 15.19 0 0 1-9.058-6.95 15.107 15.107 0 0 1-1.53-3.612A14.855 14.855 0 0 1 0 15.115c0-1.392.18-2.73.539-4.016a15.107 15.107 0 0 1 3.899-6.672 15.19 15.19 0 0 1 6.688-3.89A14.96 14.96 0 0 1 15.152 0zm0 28.332c1.215 0 2.388-.158 3.518-.474a13.404 13.404 0 0 0 3.17-1.337 13.233 13.233 0 0 0 4.747-4.735 13.34 13.34 0 0 0 1.34-3.162 12.91 12.91 0 0 0 .475-3.51c0-1.212-.159-2.382-.476-3.51a13.21 13.21 0 0 0-3.408-5.834 13.236 13.236 0 0 0-2.678-2.062 13.407 13.407 0 0 0-3.17-1.336 13.002 13.002 0 0 0-3.518-.475c-1.215 0-2.388.158-3.519.475-1.13.316-2.187.761-3.17 1.336a13.232 13.232 0 0 0-4.746 4.735 13.338 13.338 0 0 0-1.34 3.162 12.91 12.91 0 0 0-.475 3.51c0 1.212.158 2.382.475 3.51a13.207 13.207 0 0 0 3.408 5.834 13.23 13.23 0 0 0 2.678 2.063c.983.574 2.04 1.02 3.17 1.336 1.13.316 2.304.474 3.519.474zm-1.014-6.134h2.028v2.023h-2.029v-2.023zM15.151 7.02c.697 0 1.352.134 1.965.403s1.15.632 1.609 1.09c.46.46.824.994 1.093 1.605.27.612.405 1.265.405 1.961 0 .632-.1 1.183-.302 1.652-.2.47-.451.893-.752 1.273-.302.38-.627.725-.975 1.035-.349.311-.674.622-.975.933a4.945 4.945 0 0 0-.753.996c-.2.353-.3.751-.3 1.194v1.012h-2.03v-1.012c0-.633.1-1.183.302-1.652.2-.47.451-.894.752-1.273a8.29 8.29 0 0 1 .975-1.035c.349-.311.674-.622.975-.933.301-.311.552-.64.753-.988.2-.348.3-.749.3-1.202 0-.422-.078-.817-.237-1.186a3.046 3.046 0 0 0-.65-.964 3.054 3.054 0 0 0-.966-.648 2.992 2.992 0 0 0-1.19-.238 3.054 3.054 0 0 0-2.155.885 3.046 3.046 0 0 0-.65.965 2.972 2.972 0 0 0-.237 1.186H10.08c0-.696.132-1.35.396-1.96a5.101 5.101 0 0 1 2.703-2.696 4.894 4.894 0 0 1 1.973-.403z" fill="#505055"/></svg>
